d1 $ jux (spread' (striate) "[1 3 2]/3") $ stack [ every 4 (slow 1.5) $ every 3 (0.25 <~) $ sound "[[[808a/2 ~ ~ 808a/2] 808a/3 [~ 808a/2] [808a/3 808a/2 ~ ~]]/2, [808a/4*16]]" |+| shape "-0.5" ,  sound ( samples "peach*8" (run 8))
|+| speed "[1*4 1 0.8 0.5 1.2]/2"]
