bps 2

d1 $ every 7 (rev) $ every 4 (0.25 <~) $ stack [ sound "[[autodrums2:1 lesshuman/4] lesshuman/4*4 [lesshuman/7 ~ autodrums2:3 lesshuman/4] [~ lesshuman/4]]/2", every 3 (juxcut (iter 8)) $ sound "{~ ~ ~ ~ ~ ~ ~ ~, ht mt lt ht mt*2 lt}" |+| shape "-0.5" ] |+| speed (slow 3.9 "[2 2 2 2 2 2 1 2 2 2 3 2 2]")
