d1 $ density 2 $ smash 3 [3,4,2] $ every 4 (rev) $ every 3 (0.25 <~) $ stack[ spread' (slow) "[1 3 2]/3" $ striate 64 ( sound "[ifdrums]") |+| shape "0.3" |+| speed "[1 1 1 0.8]/2", sound (samples "sytrus1*8" (run 8))
|+| speed "[1 0.8 1.2 0.6 0.4 1.5 2.0 1.2 0.8 1.2 1.0 0.8 0.5 0.4 0.3 0.6]/2"
|+| shape "-0.3"]
|+| cutoff "0.15"
|+| resonance "0.2"

