bps 1

d1 $ jux (|+| speed ((*3) . (+0.5) <$> slow 3.9 sinewave1)) $ spread' (density) "[3 3 2 3 3 6 3 3 1]/3" (sound "[bd*8 [~ sn]*4 sn*6 bd*4 808ch*4]") 
|+| shape ((*0.4) <$> slow 3.3 sinewave1)
|+| cutoff ((*0.4) . (+0.05) <$> slow 5.7 sinewave1)
|+| resonance "0.7"
|+| end ((*0.4) . (+0.01) <$> slow 4.3 sinewave1)
