d1 $ every 5 (0.25 ~>) $ every 2 (0.25 ~>) $ every 4 (slow 1.5) $ every 3 (jux (iter 9)) $ density 2 $ smash 3 [3,1,2] ( sound "[ [gabba*2 can/1*3] [amencutup/2 hc*3] bd*8 [hc*6] ]"
|+| speed ((*) <$> slow 3 sinewave1 <*> "[2 5 1 3 4 7]/3"))
|+| cutoff ((*0.5) <$> slow 5 sinewave1)
|+| resonance "0.45"

