d1 $ every 3 (juxcut (|+| speed "0.8")) $ every 5 (jux (0.5 <~)) $ every 4 (slow 1.25 . striate 3) $ stack [ sound "rave:2 vox", spread' (slow) "[1 2 4 2 1]/3" $ density 2 $ sound (samples "[bd*3 [gabba rm]*2 [stab gabba] [short bin stab bin] sn2*3]" (run 20))
|+| speed "[1 1 1 0.8]/3"
|+| shape "0.5"]
