d1 $ every 5 rev $ every 6 (0.66 ~>) $ every 2 (0.125 <~) $ every 3 (0.25 <~) $ every 4 (0.25 <~) $ slow 2 $ stack[ striate 256 ( sound "if/5")
|+| speed "[1 1 0.8 1 0.6 1.2]/3"
, density 2 $ smash 3 [3,1,2] $ sound "[[lesshuman/5]*3 lesshuman/4 lesshuman/7 lesshuman/4]" |+| speed "[0.5 0.5 0.5 0.7]/4" |+| shape "0.5" ]
