d1 $ every 9 rev $ stack[ every 3 (0.25 <~) $ every 2 (0.125 <~) $ spin 1 $ slow 4 $ striate' 128 0.1 (sound "beeps/4") |+| speed "[0.3 0.5 0.3 0.3]/5", sound "[~ beeps/5]*4", every 4 (slow 1.75) $ every 3 rev $ every 2 (0.25 <~) $ every 3 (0.25 <~) $ sound ( pick <$> "[[~ beeps]*4 beeps*3 [beeps*2 beeps]*3 [beeps ~]*4 beeps*4 ~ ~ ~]" <*> density 15 (run 4)) |+| cutoff "0.05" |+| resonance "0.05" ]
|+| speed "[1 1 1 0.8 1 1 0.6]/2"
|+| shape "0.2"

