d1 $ stack [ sound "[alonevox alonevox/1 alonevox/6 alonevox/5]/16" |+| shape "0.5" |+| speed "0.95", every 5 (striate 2) $ every 4 rev $ every 3 (0.25 <~) $ slow 2 $ striate 128 ( sound "[fire]" |+| shape "-0.3") ]

