d1 $ every 3 (0.75 <~) $ stack [ every 2 (density 2) $ every 2 (0.25 <~) $ sound (pick <$> "[lesshuman*8]" <*> slow (1/3) (run 8))
|+| speed (slow 4 "[3 4 5 6]")
|+| cutgroup "1" |+| shape "0.5", jux (iter 8) $ density 2 $ sound "[beeps [~ beeps] ~ beeps]" |+| speed (slow 0.5 "[0.65 1.3 0.325]"), sound "[~ autodrums2/2]*2"]

