d1 $ every 3 (0.25 <~) $ stack [ striate 8 $ sound "[lt*4]"
|+| pan "1" |+| speed "[1 0.9 0.8 0.9]/3", rev $ striate 8 $ sound "[lt*4]"
|+| pan "0" |+| speed "[1 1.1 1 0.9]/4", every 6 (|+| vowel "a i") $ every 8 (smash 3 [3,1,2]) $ every 4 (jux rev) $ every 5 (slow 0.75) $ sound "[amoebafx/1 sn/1 sn cp hh 808a/3 bd/1*3 hh*3, 808b/1 808b/2]"
|+| speed (every 3 ((* 0.5) <$>) "[1 1 0.8 2]/2")]

