bps 1.5

d1 $ every 4 (0.25 <~) $ every 3 (0.25 <~) $ stack[ every 5 (density 2) $ every 2 (slow 0.75) $ sound "[bd*2 hh*6 bd hh*3 cp ht hh*3 hh*2]/2" |+| speed "4" |+| shape "0.8", jux (iter 8) $ sound "sytrus2/3*8"
|+| speed "[1 1.5 0.75 0.5 1.25 1.75 2 2.5, 0.25 0.125 0.5]"]
|+| vowel "[e e e o e e i i a]/3"
|+| shape ((*0.5) <$> slow 5 sinewave1)
