d1 $ every 5 rev $ jux (spread' (density) ((*4) <$> (toRational <$> (slow 2 $ sinewave1)))) $ striate 4 $ every 3 (|+| speed "1.244") $ every 4 (|+| speed "1.122") $ slow 4 $ striate 128 $ sound "pad"
