d1 $ stack [ sound "[uxay mouth/5 ~ rm] [short/1 808a ~ blip] [uxay/2] [short/2 ~ blip blip]"
|+| speed "[1 1 1 [1 1.122]]", sound "[[jvbass*4] [jvbass jvbass ~ jvbass] [jvbass*4] ~ ~ ~ ~ ~]/2"
|+| speed "[1 1.1222 0.8 ~]", every 3 (0.25 <~) $ every 4 rev $ striate 128 (sound "[tccc157/2]") |+| speed "[1 1.3 0.8 0.7]" ]
|+| shape "0.3"
