d1 $ density 2 $ spread' (slow) "[1 3 2 5 4]/3" $ stack[ sound "alone*4" |+| shape "0.4",  every 2 (0.25 <~) $ every 5 (0.25 <~) $ every 3 rev $ slow 4 $ striate 128 $ sound "[alone/5]" |+| speed "[1 0.6 0.4 1.2]/5", smash 2 [2,3] $ every 5 rev $ every 4 (0.25 <~) $ every 3 (0.25 <~) $ sound (samples "[[mouth*4 mouth*2] mouth*16 mouth*3 mouth*8]" (run 8))
|+| shape "0.2" |+| pan ((*0.5) <$> slow 2 sinewave)]

d1 silence