d1 $ stack [density 3 $ sound "glitch2/5*3"
|+| speed "[1 1.2 0.8]" |+| cutoff "0.07" |+| resonance "0.1" |+| pan "[0.4 0.6]/3", (every 5 (spread' (striate) "[4 3 2]*3") $ every 3 (0.25 <~) $ density 2 $ smash 5 [3,4,2] $ sound "[autodrums2/1 autodrums2/3 ~ autodrums2/3]/2") |+| speed "[1 0.8 1 1.2 0.7 0.5]/5"]

