bps 1.3

d1 $ slowspread ($) [density 1, (|+| vowel "u o i"), density 1, density 2, jux (rev), slow 2] $ whenmod 5 2 (slow 2 . striate 2) $ every 3 (0.25 <~) $ every 4 (0.25 <~) $ stack[ slow 2 $ sound "{~ ~ ~ ~ ~ ~ ~ ~ ~ ~ ~ ~ ~ ~ ~ ~, ul:4*3 ul:4*2 [~ ul:4] [~ ul:4] ul:4 ul:4}" |+| cutoff ((*0.1) . (+0.001) <$> slow 4.9 sinewave1) |+| resonance "0.6" |+| speed "0.5" |+| cut "2", sound "tccc15:16 [tccc15:29 tccc15:24]" |+| cut "1", density 2 $ sound (samples "amencutup*8" (slow 0.78 $ run 19))]

hush
