d1 $ spread' (slow) "[1 4 2 1 3 8]/2" $ every 3 (0.25 <~) $ density 2 $ spread' (striate' 32) ((*0.25) <$> slow 11 sinewave1) $ sound "[mute [mute ~ mute] [mute ~ mute] [mute ~ mute]]"
|+| speed "[1 [1.2 0.8] [1.5 1.2] [1.6 1.2]]"
|+| shape "0.2"


