d1 $ stack[ every 4 (0.25 ~>) $ every 3 (0.25 ~>) $ spread' (striate' 128) ((*0.05) <$> slow 4.7 triwave1) ( sound "arps:9")
|+| shape ((*0.85) <$> slow 3.3 triwave1), every 4 (slow 1.5) $ every 3 (jux (iter 8)) $ density 4 $ sound "{~ ~ ~ ~, beeps:6 beeps:7 beeps:2 taste taste:4}" |+| pan (slow 4.3 $ sinewave1) ]
|+| speed "[1 0.75 0.5 0.75]/4"
|+| vowel "[o u i e a]/3"

