bps (210/120)

d1 $ whenmod 16 10 (iter 4) $ whenmod 10 8 (trunc 0.25) $ every 4 (0.25 <~) $ every 3 (0.25 <~) $ stack [ slow 2 $ sound (samples "[8bd 8lt 8mt 8ht]*4 [[8sd:9, 8cp] [8lt 8bd 8mt 8ht]*2]" (slow 0.8 $ run 23)), every 3 (density 2) $ every 4 (density 2) $ every 2 (density 2) $ sound "8ch*4", 
slow 4 $ rev $ striate' 128 (1/10) $ sound "8cy" |+| speed "0.5" |+| cutoff "0.05" |+| resonance "0.1" |+| delay "0.5" ] |+| shape "0.6" |+| gain "0.9" |+| delaytime "0.4" |+| delayfeedback "0.5"

hush
