cps 3

d1 $ slowspread ($) [trunc 0.25, trunc 0.25, id, iter 4, iter 4, rev, slow 2 . (|+| speed "0.9"), (|+| speed "-1 -1.2 1.2 1.5"), id, (|+| coarse "4 8 2")] $ stack [ every 3 (slow 4) $ density 2 $ sound (samples "vb8 sub" (slow 3.1 $ run 11)) |+| cut "1"  |+| shape "0.4" |+| gain "0.9", sound "[vbhh*2 [vbcp vbhh] [vbs:7 vbcp] [vbhh*2 vbs:7]]/4", jux (iter 4) $ every 3 (0.25 <~) $ every 4 (0.25 <~) $ every 2 (0.25 <~) $ slow 16 $ (striate' 1024 (1/20) $ sound "vbp:2") |+| speed (whenmod 6 5 ((*1.5) <$>) $ whenmod 4 3 ((*0.9) <$>) "[0.5 0.25, [0.75 1]/2]") |+| delay "0.4" ] |+| delaytime "0.5" |+| delayfeedback "0.3"

hush
