bps (175/120)

d1 $ whenmod 8 6 (trunc 0.25) $ whenmod 12 7 (every 3 (0.25 <~) . every 4 (0.25 <~)) $ stack [ whenmod 11 10 (const $ slow 4 $ striate 16 $ sound "[blh4 blh4:6]/2") $ slow 4 $ striate 16 $ sound "[bl4:4 bl4:5]/2", sound (samples "{kit1*4 kit1*2 kit1*4 shard:13 kit5*2}%4" (run 13)), whenmod 10 6 (|+| gain "0") $ sound "ride*2" |+| speed "1.5", whenmod 11 6 ((|+| speed "1.3") . stut 4 0.25 0.25) $ sound "~ [cp:4, cp:3]"]

hush
