bps (160/120)

d1 $ every 5 (0.25 <~) $ every 4 (0.25 <~) $ every 3 (0.25 <~) $ stack [jux (0.01 <~) $ whenmod 7 6 (trunc 0.25) $ every 3 (0.1225 <~) $ every 4 (0.1225 <~) $ chop 64 $ sound "bass3 ~ pada bass1" |+| shape "0.5" |+| speed (whenmod 6 4 ((*0.8) <$>) "3"),  sound (samples "tite*16" (slow 0.74 $ run 33)), whenmod 5 4 (trunc 0.75) $ chop 16 $ sound "alone" |+| speed (whenmod 9 7 ((*0.8) <$>) $ whenmod 7 5 ((*0.8) <$>) $ whenmod 5 3 ((*0.9) <$>) "0.5"), sound "[ktite stite:7 [~ ktite] stite:7]" |+| shape "0.2"]

hush
