bps (125/120)

d1 $ whenmod 8 6 (trunc 0.25) $ stack [ slow 8 $ trunc 0.25 $ striate 16 $ sound (samples "k*16 s:4*8 hh*12 perc*16" (run 33)) |+| cutoff (scale 0.07 0.3 $ slow 3.1 sine1) |+| resonance "0.2" |+| gain "0.8", sound (samples "flkick*16?" (run 33)) |+| gain "0.8", density 2 $ sound "laz:1/2 laz [~ laz] [~ laz:1 ~ laz*2]/4" |+| speed "0.25" |+| gain "0.8" |+| cut "3", sound "[kh hh:3]*4" |+| speed "1", sound (samples "sub/4 ~ [~ bass2] ~ b/3 ~ [bass2 b] [~ b]" (run 13)) |+| gain "0.8" |+| cut "1" |+| speed "1", density 2 $ sound "~ shard" |+| speed "1", slow 2 $ sound (samples "keys2*4 [~ keys1*2] [~ keys1*2] keys2*4 [keys1*2 ~] [~ keys1*2] keys2*4 [keys1*2 keys1*2]" (run 43)) |+| delay "0.5" |+| cutoff (scale 0.05 0.2 $ slow 4.1 sine1) |+| resonance "0.7" |+| speed "[1 0.9]/2", slow 8 $ striate 128 $ sound "[sweep ~]/2" |+| gain "0.9" |+| delay "0.4" ] |+| delayfeedback "0.6" |+| delaytime "0.485"


hush
