bps 1.3

d1 $ stack [ jux (iter 8) $ every 3 (0.25 <~) $ every 4 rev $ striate' 16 (1/12) $ sound "industrial", sound (samples "[chperc]*16" (run 18)) |+| cut "1", sound (samples "~ chbd*2 ~ ~ ~ chbd ~ chbd" (run 43))]
|+| speed (every 5 ((*0.8) <$>) $ slow 3.3 "[1 1 1 -1 1 1]")

