d1 $ stack [slowspread ($) [(|+| speed "0.8"), slow 1, striate 2, jux (iter 8)] $ stack [ every 2 (density 2) $ every 3 (density 2) $ every 4 (density 2) $ sound "house*4 less:2", sound (samples "peri*16" (run 55))], every 4 (density 2) $ every 3 (density 2) $ slow 3 $ sound "~ xb1:1*2" |+| cut "1"]
