d1 $ stack[ slow 4 $ (striate' 64 0.04 $ sound "pad:4") |+| speed "[1, [0.5 0.75]/4, [3 2 2 3]/5]" |+| gain "1.3", every 3 (0.25 ~>) $ sound "[[ktite*8 [ktite*4 ~]] [ktite*4 [ktite*2 ktite]] [ktite*4 ktite] [~ [~ cp:2]/2]]" |+| speed "0.8", density 2 $ sound "~ [~ laz] ~ laz" |+| speed "0.35" |+| gain "0.8"] |+| shape "0.2"
