bps 0.9 

d1 $ stack[ every 4 (density 2) $ every 3 (density 2) $ sound "mouth*16" |+| gain "0.8",  every 6 (jux (rev)) $ every 4 (echo 0.5) $ every 3 (echo 0.25) $ stack [ every 4 (|+| speed "0.5") $ sound "[~ ~ ~ ulmel:2] ~ ~ ~" |+| cut "1", every 5 (jux (|+| speed "2")) $ spread' (density) "[1 1 2 1]/3" $ sound "[[future] [~ future*2] [drum drum*2] [jazz:5*2 drum]]"]]

