d1 $ every 5 (|+| speed "[1.2, 0.6]") $ every 4 ((|+| cutoff ((*0.2) . (+0.01) <$> slow 2.3 sinewave1)) . (|+| resonance "0.7")) $ whenmod 5 2 (jux (iter 8)) $ every 3 rev $ spread (slow) [2,3,1,4] $ slow 2 $ striate' 32 (1/4) $ sound "[peri:10 [peri:9 peri:11]/4]"
|+| speed "[[1 0.5 -1]/2, -1.5 2 3]"
|+| accelerate "[0 0 -2 0]/3"
