bps 1.3

d1 $ stack [ slow 4 $ sound "808cy:4 808cy:4" |+| speed "[0.9 -0.9]" |+| gain "0.8",  every 3 (slow 1.5) $ jux (iter 8) $ density 5 $ sound (samples "jvbass*3" (run 4))
|+| speed "[1, [4 2 8]/3, [~ ~ ~ 16 12 18]/6]]"
|+| cutoff ((*0.2) . (+0.01) <$> slow 3.1 sinewave1)
|+| resonance "0.5"
]

hush