bps 1.3

d1 $ stack[ every 5 (slow 2 ) $ every 3 (0.25 <~) $ every 2 (0.25 <~) $ sound (samples "ul*16" (run 44)) |+| speed "5", jux (0.25 <~) $ (striate' 3 0.1 $ sound "ulmel:2*2")
|+| speed "[[1 1.1225 0.8 0.5 2 3 1.5]/4, [~ 0.25 ~ 0.1225]/6]"]
|+| shape "0.3"
|+| gain "1.2"

