bps 1.2

d1 $ stack[ whenmod 5 3 (density 2) $ sound "[~ chcp:7]" |+| speed "[2, 1.5]", whenmod 4 3 (slow 2) $ every 2 (0.25 <~) $ every 3 (0.1225 <~) $ every 4 (0.1225 <~) $ sound "[[dsh:3*16], [dsk*2 ~ dss ~ dsk dss dsh*4 dsh*4]]" |+| speed "[2, 5]", (striate' 16 0.6 $ sound "chperc") |+| shape "0.6" |+| speed "[[1 [1.25 1.5]/3 0.8], [~ [0.5 0.75]/2 0.25]*2, [3 [5 2 2.5]/4 4]/2]"]
|+| gain "1.3"
