bps 1.05

d1 $ every 8 (trunc 0.25) $ every 6 rev $ whenmod 6 5 (|+| accelerate "0.5 -0.5") $ slowspread ($) [striate 2, density 2, slow 1, jux (rev), (|+| speed "[0.8 0.7]")] $ stack [whenmod 4 3 (|+| speed "1.5") $ sound "~ ~ ~ jvbass*4", spread' (density) "[1 2 1]/3" $ every 3 (striate 2) $ every 3 (0.25 <~) $ every 4 (0.25 <~) $ sound "[bd*4 ~] [rm*2 cp] ~ ~]" |+| speed "[1 1 2 1 1 0.8]/3", sound "~ ~ bminst:1 ~", sound "[~ xb1:6] ~ ~ ~" |+| speed "[1 1 1 2]/4", slow 2 $ sound "~ ~ [~ dsfx:3] ~" ]
|+| delay "[0 0 [0.5 0 0] 0]/3"
|+| delayfeedback "[0.5 0.8 0.9]/4"
|+| delaytime "[0.1 0.5 0.25 0.01]/3"

hush