bps 1.3

d1 $ slowspread ($) [(|+| speed "0.5"), (|+| accelerate "-0.1"), slow 1, rev, jux (iter 8)] $ stack [ every 4 (slow 2) $ every 2 (0.25 <~) $ every 3 (0.25 <~) $ sound (samples "peri*4 peri*2 [peri*2 peri] dss:5 peri*4 peri*2" (slow 0.8 $ "[11 10 9 14 13 12]")) |+| speed "[2 3 1]/3" |+| gain "0.8", sound "[dsfx:9]"                                                     |+| cut "1"
|+| speed "[1 1 -1 -0.75]/4"]

hush
