bps 1.3

d1 $ slowspread ($) [(|+| delay "0.5"), striate 2 . slow 2 . rev, rev, slow 2, slow 1] $ stack[ sound ( samples "big*4 feel*4 bmdrums*4 ~" (run 33)), every 4 rev $ sound "~ ~ ~ bass1:4*4"
|+| cut "1"]
|+| end (every 3 rev $ slow 1.5 $ "[1 0.5 0.25]")
|+| speed "[1 1 1 1.2 1 1 0.8]/5"
|+| delayfeedback "0.5"
|+| delaytime "0.4"
