d1 $ every 7 (slow 2) $ spread' (density) "[1 1 2 1 1]/3" $ every 6 (jux (iter 8)) $ every 4 (striate 2 . (|+| speed "[1 1 ~ ~]") . (|+| accelerate "0.5 -0.5")) $ every 8 (trunc 0.5) $ stack [ sound "dsfx:4*4 dsfx:7 dsfx:8*2 dsfx:9"  |+| cut "1", sound "dsk [~ ~ ~ dsk] [dsh*2 chbd:14*2] [dss chbd:14 ~ chbd:14]"]
|+| shape ((*0.2) <$> slow 3.1 sinewave1)
|+| delay "[0 0 0 [0.5 0 0]]/5"
|+| delayfeedback "0.7"
|+| delaytime "0.14"
|+| speed "[[1 2] 1 1 1 [1 0.8]]/4"

