bps 1

d1 $ every 5 (0.125 <~) $ every 3 (0.125 <~) $ every 4 (rev) $ striate' 3 0.2 $ sound "ulmel/3*6" |+| speed "[1 2 1.5 0.75 2.5 1.75, [~ ~ ~ ~ ~ 0.5 ~ ~ ~ ~ ~ 0.25]/2, [~ ~ ~ ~ ~ ~ ~ ~ ~ 0.125 ~]/6]"
