bps 1

d1 $ slowspread ($) [jux (iter 8), rev, slow 1, slow 2 . (jux (iter 8))] $ every 3 (0.25 <~) $ every 4 (0.25 <~) $ stack[ sound (samples "ktite*2 ktite*2 ktite*4 ktite*2 ktite*2 ktite*4 ktite*2 ktite*2" "5"), sound "[[~ s ~ s] sdeep]*2", sound "[~ hh]*8"] |+| accelerate "[-1 1 3 0 2 -0.5 2 -1 4 4 5 6]/3"  

