bps 0.8

d1 $ every 5 (slow 2) $ every 3 rev $ stack[ sound "[[dsk*8 dsk*4] dss]" |+| speed "1.2", every 3 (density 2) $ sound "[[bd*4 cp [~ 808ch ~ 808ch] [cp 808rs*2]]]" |+| speed (whenmod 5 3 (rev) $ "[1 0.8 1.2 0.5]") |+| shape "0.7", jux (iter 8) $ slow 2 $ trunc 0.75 $ (striate' 64 0.25 $ sound "grunt")
|+| speed "[[2 5 4]/2, [0.5 0.75]]" |+| gain "0.9" ]
|+| gain "1.3"
