cps 1.8

d1 $ retrig $ slowspread (iter) [2, 3, 4] $ slowspread (iter) [4, 8] $ stack [ slowspread (slow) [2, 2.5, 1.5, 4, 5, 1, 3] $ (slowspread (striate) [64, 16, 32, 256, 8, 128]) $ sound (samples "[~ [k cp]*16] [k*6 k*3]" "11 12 18") |+| speed "[1 0.5 0.25 2]/5" ] |+| shape "0.4"

hush
