d1 $ (slowspread ($) [trunc 0.5, rev . smash 4 [3,1,2] . density 2 . (|+| accellerate "2"), density 2, rev . trunc 0.25 . (|+| speed "[1 0.7 0.5 0.3]*4"), rev, jux (iter 4), slow 1, (|+| pan "[0 1]*6"), rev . spread' (striate' 4) "[0.4 0.5 0.6 0.8]", density 3, slow 3 . jux (iter 16), (|+| accellerate "-2")] $ sound "[bd*4 sn*16] [cp*2 lt*2] [hh*4 sn*4] [bd*2 lt*2 can*2 odx*2]" )
|+| delay ((*0.7) <$> slow 5.3 sinewave1)
|+| delayfeedback "0.4"
|+| delaytime ((*0.5) . (+0.005) <$> slow 6.1 sinewave1)

hush