bps (140/120)


d1 $ iter 4 $ within (0.25, 0.75) (every 3 (slow 2 . rev . stut 12 0.25 0.25)) $ stack [ whenmod 7 6 ((|+| speed "-1") . (|+| begin "0.25")) $ whenmod 6 5 (|+| speed "0.8") $ whenmod 5 4 (|+| speed "0.9") $ slow 2 $ degradeBy 0.5 $ sound "aqua*8" |+| cut "1", whenmod 7 6 (slow 1.5) $ whenmod 8 7 (|+| delay "0.5") $ slow 4 $ sound (samples "flkick*8 [stite:0, cp:3] ~ ktite*6 ~ [~ ktite*4] [stite:0, cp:3] ~"(run 44)), slow 4 $ sound (samples "~ ~ [~ sub/3] ~ ~ ~ ~ [[808cy [~ 808cy] ~ 808cy] ~]/2]" "1") |+| cutoff "0.2" |+| resonance "0.01" |+| cut "2" |+| speed "0.25" |+| delay "0.5"] |+| delaytime "0.7" |+| delayfeedback "0.5"

hush
