d1  $ every 4 (jux (iter 7)) $ every 2 (0.25 <~) $ every 3 (0.25 <~) $ every 4 (0.25 <~) $ stack[striate 128 ( sound "breaks125/1") |+| speed "0.8" |+| shape "0.7", sound "[arpy*2 [~ arpy] arpy*2 arpy*2 [~ arpy] [~ arpy] arpy*2 arpy*2]"
|+| speed "[[0.5 0.75] 0.5 [0.4 0.5] [0.3 0.6] 0.75 1 [0.75 0.8] [0.75 0.6], [ ~ [~ 0.25 ~ ~] ~ ]]"]

