bps 0.8

d1 $ stack[ every 3 (0.25 ~>) $ every 4 (0.25 ~>) $ striate' 128 (1/80) $ sound "breaks:18"
|+| speed "0.8" |+| cutoff "0.07" |+| resonance "0.01", jux (spread' (striate' 3) ((+0.1) <$> slow 8.1 sinewave1)) $ density 2 $ sound "{~ ~ ~ ~, pluck:2 ~ ~ pluck:2*2 ~ ~}" |+| speed ("{~ ~ ~ ~ ~ ~ ~ ~, 0.8 ~ ~ [1.25 1] ~ ~ 0.5 ~ ~ [0.75 0.25] ~ ~ }/2") |+| shape "0.5"]

hush
