bps (180/120)

d1 $ whenmod 10 9 ((|+| gain "0.8")) $ whenmod 13 11 ((|+| shape "0.85") . (|+| gain "0.8")) $ whenmod 20 12 (iter 4) $ whenmod 12 9 (const $ stack [ slow 4 $ (striate' 64 (1/10) $ sound "[m1 hoo m2]") |+| speed (whenmod 8 4 ((*0.8) <$>) "[[1 0.5 0.75 0.25]*3, [1.25 1.5 1.75]*2]"), sound "vbhh*6" |+| gain "0.6"] ) $ stack [ every 5 (within (0.25, 0.75) (slow 2 . rev . stut 4 0.25 0.25)) $ whenmod 10 7 (slow 1.5) $ every 4 (degradeBy 0.5) $ sound (samples "ow2 cpr/3 vbk1*8 [vbs vbcp]*2" (run 11)) |+| speed "[[1 1.5], [3 2]/2]/3", sound "m2/3 hoo/4 m2:1/2 hoo:1/5" |+| speed (whenmod 8 4 ((*0.8) <$>) "1"), every 3 (density 2) $ every 4 (density 2) $ sound "vbhh*4" |+| speed "1.25" |+| gain "0.9"]

hush
