cps 1

d1 $ slowspread (slow) [1, 1.5, 2, 1.25, 0.8, 0.5, 0.75] $ slowspread (spin) [50, 40, 30, 20, 10, 60, 70, 80, 90, 100] $ slowspread (density) [1, (11/10), (12/10), (13/10), (14/10), (15/10), (16/10), (17/10), (18/10), (19/10), (20/10)] $ slow 2 $ sound "bd bd bd sn sn hh hh*2 cp" |+| speed (every 3 ((*0.8) <$>) "[1 3 0.5 1.5 1.2 2 4 5]/7") |+| delayfeedback "0.3" |+| delaytime "0.5" |+| delay "0.4"

hush
