bps 1.1

d1 $ spread' (slow) "[1 2 1]/3" $ stack[ every 3 (trunc 0.25) $ whenmod 5 3 (iter 4) $ sound (samples "psr*4 psr*8 psr*4 psr*4" "[1 2 [3 4 5]/3 6 7 [8 9]*2 10 11 [12 13]*2]")
|+| end "0.05" |+| speed "[1 0.8, [0.5 1.5]/2]" |+| cutoff "0.2" |+| resonance "0.1", whenmod 7 3 (jux (iter 8)) $ every 2 rev $ every 3 (triple 0.25) $ slow 2 $ striate 2 $ sound (samples "[[~ bass3]/2 ~ bass3 bass3*2]*2" "[1 3 7 5 4 6]/3") |+| speed (every 4 rev $ slow 0.8 $ "[[1 2 [0.75 1.25]/2 [4]/3]/2, [3 2.5 5] ]")]


hush