d1 $ every 6 (rev) $ every 4 (|+| speed "0.8") $ every 5 (|+| speed "[0.7 1.2]") $ every 4 (0.25 <~) $ every 3 (0.25 <~) $ density 2 $ stack [sound "[~ gab2/1 ~ gab2]/2", slow 2 $ striate 128 (sound "amoebabreaks")]

