d1 $ stack[ slow 4 $ every 2 rev $ striate' 128 (1/100) ( sound "swell:1") |+| cutoff "0.2" |+| resonance "0.2" |+| speed "[1 0.8]/2", spread' (density) "[1 1 2 1 1]/2" $ every 3 rev $ every 4 (0.5 <~) $ sound (samples "[periperc*4 [beeps amoebabass] [osc robo sytrus osc] [taste*2 perinotes]]" (run 21)) |+| speed "[1 1.25 2 1.5 0.5 0.8]/2" |+| shape "0.3"]

