bps (180/120)

d1 $ slowspread ($) [(|+| accelerate "0.5 -0.5"), rev, slow 1, trunc 0.25, trunc 0.25, slow 1, jux (iter 8), slow 1] $ stack [chop 64 $ every 4 (const $ sound "[kv:0 kv:2] kv:1 [sv:1 kv:2] [kv:0 kv:1]") $ sound "kv:1 sv", slow 8 $ chop 128 $ sound (samples "sea:0 ~ newnotes*2 newnotes*2 ~ ~ sea:0 sea:0" "[11 12 17 20 15 9 23]*2") |+| delay "0.4" |+| speed (((*0.5) <$>) "[1 1 1 1 1 1 0.8 1.1225]"), slowspread (slow) [1,2,1.5,3,2.5] $ chop 64 $ sound (samples "[numbers]*4" (run 4)) |+| gain "0.8" |+| speed "1.1" ] |+| delayfeedback "0.4" |+| delaytime "0.5"

hush
