bps 1.5

d1 $ whenmod 7 5 (jux (iter 8)) $ every 4 (slow 2) $ every 3 (striate' 2 0.5) $ sound "dsk*4 [dsh:1*2 dss] [dsh [dss dsh:2]] chperc*4"
|+| speed "[[1 2 1 3]/3, [~ 0.5 ~]/2]"
|+| delay "[0 0 0 0.5]/5"
|+| delayfeedback "0.3"
|+| delaytime "0.5"
