d1 $ stack [ slow 2 $ (striate' 12 0.5 $ sound "[bd sn 808cb]*12")
|+| speed (every 4 (rev) $ "[1 5 2 10 3 8]"), every 5 rev $ every 4 (trunc 0.5 . striate' 6 0.5 . slow 3) $ whenmod 4 3 (density 2) $ every 3 (|+| speed "0.7") $ sound (samples "ul*12" (run 32)) ] |+| shape "0.3"

