bps (150/120)

d1 $ retrig $ slowspread ($) [(|+| speed "1.2 0.8"), rev, id, (|+| speed "2"), iter 4, iter 4, (|+| speed "-1.2 -1 1"), within (0.75, 1) (const $ sound "~ thx:1" |+| shape "0.7" |+| speed "0.9"), rev . slow 2 . stut 8 0.25 0.25, id, slow 4 . stut 6 0.25 0.25, trunc 0.25, trunc 0.25] $ every 3 (0.25 <~) $ every 4 (0.25 <~)  $ stack [ (|+| coarse "8 12 64 32") $ sound "bd*8 bd*4 bd*6 bd*12", sound "~ stite [~ stite] ~", sound (samples "k*4? ~ ~ k*4?" (run 33)), slow 2 $ sound "hh:19*6 ~", sound "[kh/2 psh [hh*2 kh] [psh hh]]", slow 2 $ trunc 0.25 $ striate 16 $ sound "pad:7" |+| shape "0.8", slow 2 $ sound "~ [~ laz] ~ laz" |+| speed "0.25" |+| cut "2", sound "~ ~ sea/2 ~" |+| speed "[1 0.5]/3" ]

