d1 $ stack [ slow 6 $ (striate' 32 (1/20) $ sound "autoinst autoinst:1") |+| cutoff ((*0.1) . (+0.01) <$> slow 1.3 sinewave1) |+| resonance "0.8" |+| shape "0.2", every 4 (slow 2) $ every 3 rev $ jux (rev) $ slow 4 $ (spread' (striate' 32) ((*0.05) . (+0.25)  <$> slow 2.1 sinewave1) $ sound "autoinst:2 autoinst:3")
|+| speed "[-1 -0.8, -2 -1.6]/2"]

hush