bps 0.9

d1 $ every 4 (trunc 0.25) $ stack [sound "~ [~ [sub ~]/2 ~ ~] [~ b:11]/2 ~", sound (samples "[{kh*4 s ~ ~ ~ ~ kh*4 s, peri*2 peri*2 peri*2 ~ ~}, [~ hh]*8]" (run 16))]
|+| speed "[[1 1.1 1 1]/3, [3 ~ ~ 3 2 ~]/4]"

