bps 0.9

d1 $ stack [ slow 2 $ striate 128 $ sound "pluck" |+| speed "[0.4 0.6]/2" |+| shape "0.4", slow 2 $ every 5 (0.25 <~) $ spread' (striate) "[8 16 6 12]/3" $ jux rev $ every 4 rev $ every 3 (0.25 <~) $ sound "[[metal metal*2] [metal metal*2] [metal*4 metal*2] [metal metal*2]]" |+| speed "[1 0.8 1.2 0.5 0.4 0.2 0.75 0.8]/3"]

