d1 $ every 4 (0.25 <~) $ spread' (slow) "[1 2 1 1 1 1]/2" $ spread' (density) "[1 1 2 1 1]/3" $ whenmod 8 6 (|+| speed "0.8 0.5") $ stack[ sound "[[chbd:8 ~ chfx chbd:8] chhh:2*8 chsn:3 [~ chhh:2*4], ~ ~ ~ [chbd:8*2 ~]]", slow 3 $ sound "~ [ ~ xbass:9] ~ [~ hloop:9*2]" |+| cut "2" |+| end "0.02"]
|+| cutoff ((*0.4) . (+0.01) <$> slow 5.3 sinewave1)
|+| resonance "0.2"
