bps (160/120)

d1 $ stack [whenmod 7 6 (const $ sound "~ kit5:7*3") $ sound (samples "kit5*16" (slow 0.6 $ every 3 (0.25 <~) $ "[0 1 2 3 4 5 6 7 10 11 12 13]")) |+| speed "[[1 1 0.8]/2, [1.25 1.5]]", whenmod 8 7 (const $ sound "~") $ sound (samples "[b [~ b] ~ b*2 sub ~ b ~]/5" (slow 0.8 $ run 21)) |+| cut "1" |+| speed "[1 1.25 1 -1 1 1.25 1 0.8]/3", sound (samples "[~ vox ~ llama ~ josie ~ fran ~ control]/9" (slow 0.8 $ run 33)) |+| speed "1" |+| cut "2" ]

