bps (130/120)

d1 $ whenmod 6 4 (const $ slow 2 $ sound (samples "kh*16 [shard laz:3] [~ laz:1 ~ laz:2] [~ laz:2 ~ laz:0]" (run 33)) |+| speed "0.8 0.5") $ stack [ sound "flkick:52*8?", sound "electrowave*8?" |+| cut "1", sound "laz:1*8?" |+| cut "2" |+| speed "0.8" |+| gain "0.9"]
