bps 0.8

d1 $ stack[ every 5 (0.25 <~) $ every 3 (0.25 <~) $ sound (samples "hh*3 s [~ k] kh hh*4 ktite*3 ~ ~ s*2 ~ hh*2 ~ ~ cp ~ ~" (run 33)) |+| speed "[1 1 -1 1 1 1 0.8 0.8 1]/3" |+| shape "0.2", slow 4 $ trunc 0.5 $ rev $ (striate' 64 0.1 $ sound "cave")
|+| speed "[[1 1 1 [1 0.5]/2], [2 2.5 4 3]/3 ]" ]

