d1 $ stack [ jux (0.03 <~) $ every 2 rev $ smash 8 [3,1,2] $ sound "less2" |+| shape "0.4",  juxcut (|+| speed "[0.8 0.8 0.8 0.5]/4")$ every 4 (|+| end "0.1") $ density 2 $ sound (samples "less*8" "[1 2 3 4]*3")]
|+| cutoff ((*0.4) . (+0.01) <$> slow 8.3 sinewave1)
|+| resonance "0.1"

hush