bps (175/120)

d1 $ stack [ whenmod 6 5 (striate 2 . slow 2) $ sound (samples "future*2 [future clak] [clak click]*2 boi [ul clak] [doru*2 hh*2]/2 [[c64 boi]/2 clak] [doru*2 hh*2]/2" (run 35)) |+| speed "[1 0.8 1 [1 -1.1]/2]/3", slow 2 $ sound (samples "[~ sub] ~ ~ [sub ~]/2 ~ ~ b ~" (every 5 (slow 0.7) $ run 52)) |+| cut "1", slow 6 $ (striate 16 $ sound "fxlong") |+| speed "[[1 1.2 1.5]/2, [~ 0.8 0.5]]" |+| gain "0.7" ] |+| shape "0.2"

