bps (175/120)

d1 $ every 3 (0.25 <~) $ every 4 (0.25 <~) $ stack [ whenmod 4 3 (slow 2) $ whenmod 3 2 (density 2) $ sound "hh*8", whenmod 6 4 (slow 2) $ sound (samples "kh [~ kh]/2 s ~ ~ kh s ~" "29") |+| speed "[1.2 1.2 1.2 1]/3", slow 4 $ sound (samples "b drop [~ b] [~ b] b*2 b sub at:1" (run 21)) |+| cut "1", jux (iter 8) $ slow 4 $ (striate 32 $ sound "padloop:27"), slow 3 $ sound "numbers:1 numbers:2"]

