bps 0.9

d1 $ stack [ whenmod 5 2 (density 2) $ every 2 (0.25 <~) $ every 3 (0.25 <~) $ sound "short:1*2 short:1 ~ ~", slowspread ($) [slow 2, (0.25 <~), rev, jux (iter 8), slow 3] $ density 2 $ spread' (striate' 128) ((*0.3) . (+0.01) <$> slow 1.2 sinewave1) ( sound "josie:7")
|+| speed ((*2) . (+0.3) <$> slow 2.8 sinewave1)]

