bps 0.9

d1 $ every 3 (0.25 <~) $ stack[ sound (samples "big*4 teeny*4 big*4 teeny*4" (run 13)), every 2 (0.25 <~) $ every 3 (0.25 <~) $ density 2 $ sound "~ beeps*4" |+| shape "0.4" |+| accelerate (slow 4 $ "[-3 1]*3")
|+| speed "0.25"
|+| end "0.3"]
|+| shape "0.2"
