bps (150/120)

d1 $ whenmod 8 6 (trunc 0.25) $ every 3 (0.25 <~) $ every 4 (0.25 <~) $ stack [ whenmod 10 6 (striate 32) $ slow 4 $ sound "vocad" |+| speed (whenmod 14 10 ((*1) <$>) "0.5") |+| cut "1", sound "~ bor" |+| speed (whenmod 14 10 ((*0.9) <$>) "1") |+| cut "2", whenmod 16 8 (const $ degradeBy 0.3 $ slowspread (within (0.25, 0.75)) [rev . slow 2 . stut 6 0.25 0.25, id, rev, (|+| speed "1.2 0.8 -1"), chop 16, chop 8, (|+| accelerate "1 -1"), slow 2 . stut 4 0.25 0.25] $ density 2 $ sound (samples "[tite stite peri untuned doru kit1 tite ul]" (slow 0.8 $ run 23)) |+| cutoff "0.1" |+| resonance "0.1") $ whenmod 3 2 (rev) $ trunc 0.25 $ slow 2 $ (spread' (striate' 8) ((*0.5) <$> slow 3.1 sine1) $ sound (samples "blip2*4" (run 4))) |+| speed (whenmod 14 10 ((*0.9) <$>) "[1 1.5 1 2 0.5 0.75]/4") |+| delay "0.4" ] |+| delaytime "0.7" |+| delayfeedback "0.4"

hush
