bps (165/120)

d1 $ stack [ degradeBy 0.5 $ sound "bl4:2*8" |+| cut "1" |+| speed "[1 1.5 1 ~ 0.75 1.25 ~ 1 2]/3" |+| gain "0.9", whenmod 10 8 (slow 2 . stut 16 0.6 0.1) $ whenmod 15 10 (iter 4) $ every 2 (0.1225 <~) $ every 4 (0.25 <~) $ every 5 (rev) $ every 3 (0.25 <~) $ within (0.25, 0.75) (whenmod 5 3 (0.1225 <~)) $ within (0, 0.5) (every 2 (0.1225 <~) . whenmod 6 4 (0.1225 <~)) $ striate 16 $ sound "amen" |+| shape "0.2" |+| speed "[1 0.9 1 [1.3 1.2] 0.75 1 1.1 1.1]/5" ]

hush
