
d1 $ stack [ every 6 ((|+| speed "0.6") . slow 2) $ every 5 (slow 1.5) $ every 3 (striate 2 . slow 2 . rev) $ sound (samples "[half2]*16" (run 18)) |+| speed "[0.9]" |+| delay "[0.1 0.1 0.1 0.7]/3", every 3 (0.25 <~) $ jux (rev) $ spread' (striate) "[2 2 4]/3" . slow 2 $ sound "osc*4 osc*2 [osc osc ~ osc] osc*4" |+| speed ( every 4 ((*0.8) <$>) "[[1 0.75 1.5 1.25 0.75 1]*3, [2 4 3 2 4]/2]") |+| delay "[0.5 0.8]/2"] |+| delayfeedback "0.5" |+| delaytime "0.5"

hush