bps (120/120)

d1 $ slowspread ($) [(|+| speed "1.25"), slow 1, slow 2, slow 1, (|+| speed "-1 1 -1"), striate 2 . slow 2 . (|+| speed "0.6"), slow 1] $ whenmod 8 6 (trunc 0.25) $ stack [ sound "flkick:13*4", density 2 $ sound "~ [shard:1 control]/2" |+| speed "0.9" |+| cut "5", whenmod 5 4 (jux (iter 4)) $ sound (samples "hh:3*16?" (run 33)) |+| gain "0.9", sound (samples "[~ hitter] ~ ~ bass2*2 bass2*2 bass2*2 bass2*2 bass2*2" (run 23)) |+| shape "0.2" |+| cut "3"] |+| shape "0.2"

hush
