d1 $ every 5 (rev) $ every 6 (smash 3 [2,1,3]) $ slow 2 $ stack[(spread' (striate' 128) "[0.01 0.02 0.03 0.005]" ( sound "pada")) |+| shape "0.2" |+| speed "[1 1 0.8 1 0.7 1.2]/3", density 2 $ smash 3 [3,1,2] $ sound "[autodrums2/3 autodrums2/1]/3" |+| speed "1.5" |+| shape "-0.4"]

