bps 1

d1 $ stack [ jux (iter 16) $ density 2 $ sound (samples "arpy*8" (run 33))
             |+| speed "[1, 0.5 0.25 0.75]/3"
|+| cutoff ((*0.2) . (+0.01) <$> slow 7.1 sinewave1)
|+| resonance "0.1", whenmod 5 3 (|+| speed "1.5 2 0.5 1") $ every 3 (0.25 <~) $ every 4 (0.25 <~) $ density 2 $ sound (samples "peridrums*8" "[0 1 3 4 5 7]*3")]

hush