bps (85/60)
  
d1 $ stack [ every 7 rev $ every 3 (0.25 <~) $ every 5 (0.25 <~) $ sound "[amencutup amencutup/1 amencutup/2 [amencutup/3 amencutup/4] [amencutup/5 amencutup/6] amencutup amencutup/1 [amencutup/3 amencutup/4]]" |+| speed "[[1 1.2] [1 0.7] 1 0.8]/4", every 5 rev $ slow 2 $ striate 256 ( sound "[alone/7]/2")|+| speed "[0.7 0.5]/2"]

d1 silence
