d1 $ juxcut (iter 8) $ stack [slow 2 $ sound "hate:3", sound (samples "[~ grunt2]*4" (run 12)) |+| shape "-0.7", sound (samples "[grunt]*4" (run 12)) |+| shape "0.3"]
|+| vowel "a o u"
|+| speed "[1 1 0.7 1]/3"

hush