d1 $ spread' (density) "[1 1 2 1 1]/3" $ every 5 rev $ every 3 (0.25 <~) $ every 4 (0.25 <~) $ slow 2 $ stack[ sound "[[chbd [~ chbd] ~ ~ chsn:3 ~ ~ ~ ~ [chbd chbd] [~ chbd] [~ chbd] chsn:3 ~ ~ ~]]", slow 2 $ every 3 (0.25 <~) $ every 4 (0.25 <~) $ every 2 (0.25 <~) $ sound "[chhh:2*32 [chhh:2*8 [chhh:2*8 chhh:2*4] chhh:2*8 chhh:2*8]]" |+| cutoff "0.1" |+| resonance "0.1", sound "~ hloop:1 ~ ~ ~ ~ hloop:1 ~" |+| cut "1" |+| speed "1 0.8" |+| end "0.075" , whenmod 7 2 (jux (iter 8)) $ whenmod 8 6 (|+| speed "0.75") $ density 4 $ sound "{~ ~ ~ ~, vox:9 ~ ~}" |+| end "0.3" |+| cutoff ((*0.1) . (+0.05) <$> slow 7.3 sinewave1) |+| resonance "0.7" |+| cut "2", sound "~ ~ ~ [~ xbass:4] ~ [~ xbass:4] ~ [~ xbass:4*2]" |+| end "0.01" |+| cut "3" |+| speed "1 1 0.8"]
