bps 1

d1 $ stack [ every 2 (0.33 <~) $ every 3 (density 2 . rev) $ jux (|+| speed "-0.2") $ slow 1.333 $ striate' 16 0.05 $ sound "dss:1" |+| speed "-0.25", jux ((|+| speed "0.8")) $ every 2 (0.33 <~) $ every 3 (slow 2) $ striate 2 $ sound "ul:2*9 ul:3*4 feel*6 [feel:6 feel:7*3]" |+| shape "0.5", jux ((|+| speed "0.25") . slow 3) $ jux ((|+| speed "0.5") . slow 2.5) $ sound "ul*3"]
|+| shape "0.3"
|+| gain "1.3"
