bps 0.9

d1 $ spread' (density) "[2 1 2]/3" $ spread' (slow) "[1 2 1]/2" $ slowspread ($) [ slow 1, (rev . density 2), spread' (density) "[4 3 2 1]", (|+| speed "0.8")] $ stack [ sound "[[less:1 less:1] ~ less:4 less:2]" |+| cut "1", sound ( samples "~ bd*2 [~ bd] bd*3" (slow 0.9 $ run 19)) |+| speed "[[1 1.122] 1 1 1]"] 

hush