bps 0.7

d1 $ slowspread ($) [slow 2, (|+| speed ((*0.5) . (+0.25) <$> slow 0.9 sinewave1)), slow 1, rev, (striate 4 . slow 2 . rev), (|+| speed "[[1.5 2 3 2.5]*3, [~ ~ [0.5 ~] ~]]")] $ stack [ sound (samples "[odx drum*2 odx*2 drum*4]*4" (slow 0.6 $ run 12)) |+| cut "1", sound "osc:4*16" |+| speed "[[1 1.5 1.25 0.5 1.5 1 1.25 0.75]*3, [~ [0.25 ~] ~ ~ ~ ~ [0.1225 ~] ~]/2]"]
