bps (100/120)


d1 $ slowspread ($) [striate 4 . trunc 0.5 . slow 2, rev, id, stut 3 0.5 0.33, id, (|+| speed "-1"), id, chop 8 . within (0.25, 0.75) (density 2), id] $ whenmod 8 6 (trunc 0.25) $ every 4 (0.25 <~) $ every 3 (0.25 <~) $ stack [ sound (samples "beeps*16" (run 31)) |+| speed "[1 0.5]/4", every 5 ((|+| speed "2") . density 2) $ density 2 $ sound "~ lesss", sound "~ [~ lessb] ~ ~ ~ ~ ~ [~ drop/2]" |+| cut "1" ]

hush
