bps (120/120)

d1 $ density 2 $ slowspread ($) [id, trunc 0.25, trunc 0.25, (|+| accelerate "3 -3"), spin 0.75, density 2 . (|+| speed "1.25"), (|+| speed "1.25 -1.5 0.8 1.25"), (|+| coarse "128"), id, jux (iter 8), within (0.25, 0.75) (slow 2 . rev. stut 8 0.2 0.2)] $ every 3 (0.25 <~) $ every 4 (0.25 <~) $ stack [ every 5 (rev) $ sound (samples "[~ ow1/2] ~ ~ ~" (irand 3)) |+| cut "1", every 4 (rev) $ every 6 (|+| coarse "64 32 16") $ sound (samples "[a1 a1] [~ a1] [~] [a1 ~]" "[0 1 3 2 0 5 4 2 1]/2") |+| speed (whenmod 8 6 ((*0.75) <$>) "[1 1.5 1.25 0.8]"), every 7 (|+| coarse "16") $ slow 2 $ sound "vbk1*4 vbs [vbhh vbk1*2] [vbs, cpr/2]" |+| shape "0.2" ]

hush
