bps 1

d1 $ slow 2 $ spread' (density) "[2 4 3 1 5]/5" $ rev $ spread' (striate' 64) "[0.3 0.1 0.2 0.4]/3" ( sound "uldrums/5" )
|+| cutoff ((*0.2) <$> slow 3 sinewave1)
|+| resonance "0.05"
|+| speed "[1 1.25 1.5 2 0.8 2.5]/2"

