d1 $ stack [ every 3 (jux (iter 3)) $ whenmod 8 2 (slow 1.5) $ every 2 (0.25 <~) $ every 3 (0.25 <~) $ every 4 (0.25 <~) $ every 2 rev $ slow 2 $ spread' (striate' 6) ((*0.5) . (+0.1) <$> slow 5.3 sinewave1) $ slow 1.5 $ sound (samples "[asia [asia asia*2] asia*4 asia*2 asia*2 asia*2 asia*2 asia*4]" (run 26)), slow 2 $ sound "mute"
|+| speed "[0.25 0.3]/2"]
