d1 $ stack[ every 3 rev $ spread' (density) "[1 3 2 4 3 7 5 8]" $ sound "mouth*64"
|+| cutoff ((*0.5) <$> slow 4 sinewave1)
|+| resonance "0.05"
|+| pan "1" |+| speed "0.2", every 4 rev $ spread' (density) "[4 2 6 1 3 2 8 5]" $ sound "mouth*64"
|+| cutoff ((*0.5) <$> slow 3 sinewave1)
|+| resonance "0.05"
|+| pan "0" |+| speed "0.2", every 4 (0.25 <~) $ every 3 (0.25 <~) $ sound "[[bd*4 ~ ~ ~] hh [sn/1] [hh*4 ~ ~ ~] ~ hh [sn/1 ~ bd*4 ~] [hh*3 ~ ~ ~] ]"] |+| speed "2"
|+| shape "0.9"
|+| vowel "[a e i o u]/2"
