bps (150/120)

d1 $ slowspread ($) [(|+| speed "0.9"), stut 8 0.5 0.1, slow 1, rev, slow 2 . stut 3 0.25 0.25, (|+| speed "1 -1 1.2 1.3"), (|+| speed "1 0.9 0.8 0.7"), slow 1, (|+| speed "1 1 2 0.5")] $ whenmod 8 6 (trunc 0.25) $ every 3 (0.25 <~) $ every 4 (0.25 <~) $ stack [ slowspread (chop) [4,12,8,24,16] $ sound "mel:2 mel:4 [~ mel:2] mel:5", sound (samples "tite*16" (run 43)), slow 2 $ sound (samples "~ ~ s ~ ~ s ~ ~ s ~ ~ s ~ ~ s ~" "5"), sound (samples "{~ [k*2 ~] ~}%4" (run 43)), sound "~ [~ drop/2] ~ ~", slow 4 $ chop 32 $ sound "{mint coin ~}%4", sound "~ gab kl [hv*2 gab]" |+| cut "3" ]

hush
