bps (130/120)

d1 $ slowspread ($) [trunc 0.25, trunc 0.25, (|+| speed "0.9"), slow 1, slow 2 . stut 4 0.5 0.25, slow 1, rev, (|+| speed "1 -1 1 -2"), slow 1, slow 6 . stut 16 0.4 0.2 . rev] $ iter 4 $ stack [ whenmod 4 3 (0.25 <~) $ slow 4 $ (slowspread (chop) [512, 1024, 256, 2048] $ sound (samples "gab*8" (run 11))) |+| cutoff (scale 0.01 0.1 $ slow 3.1 sine1) |+| resonance "0.5" |+| speed (scale 0.5 2 $ slow 4.41 sine1) |+| shape "0.5", whenmod 3 2 (0.25 <~) $ slow 2 $ sound (samples "ktite*4 [stite hh hh]!! ktite*3 [stite hh*4] ktite stite" (run 31)), whenmod 5 4 (0.25 <~) $ slow 2 $ sound (samples "mel beeps*2 taste*2 [taste robo beeps mel]!!! mel mel mel" (run 55)) |+| cut "3" ]

hush
