d1 $ (spread' (striate' 3) ((*0.2) <$> slow 6 sinewave1) $ every 3 rev $ every 4 (0.5 <~) $ stack[ slow 2 $ striate 64 (sound "feelfx2/7") |+| speed "[1 0.4 0.8 0.5 0.6]/4", sound "[lesshuman/6]/2" |+| speed "[1 0.9]/4" ])
|+| cutoff ((*0.5) <$> slow 8 sinewave1)
|+| resonance ((*0.5) <$> slow 7 sinewave1)

hush