bps (170/120)

d1 $ stack [slow 8 $ striate' 64 (1/50) $ sound "music8:2" |+| cutoff "0.05" |+| resonance "0.2", slowspread ($) [striate 2, trunc 0.25, jux (|+| speed "1.1"), slow 1, (0.25 <~), (|+| speed "0.8"), slow 1] $ every 3 (0.25 <~) $ stack [ sound (samples "~ ~ sub [untuned [~ [doru:16 doru:21]/2]]" (run 54)) |+| cut "0 0 1 0", slow 2 $ sound (samples "kh [kh k]*2 [[s ~]/2 [~ cp]/2] [s kh] hh*4 [ride clak] [hh untuned] [~ ride]" (run 21))] ]


