bps (70/120)

d1 $ whenmod 9 7 (trunc 0.25) $ every 3 (0.25 <~) $ every 4 (0.25 <~) $ whenmod 5 4 (const $ sound (samples "josie nerd mel control b bock fran llama" (slow 0.7 $ run 13)) |+| end "1 1 1 1 1 1 1 0.7" |+| cut "3" |+| speed (slow 0.8 $ "[1 1.2 0.8]")) $ stack [ density 2 $ sound (samples "k*16 ~" (run 43)) |+| cutoff ((*0.5) <$> slow 5.1 sine1) |+| resonance "0.45", density 2 $ sound "~ shard:1", density 2 $  sound "~ ~ [~ b] bass2/2" |+| cut "1", density 4 $ sound (samples "{~ ~ ~ ~, hh*2 hh*2 ~ ~ ~}" "2") |+| gain "0.8" ] |+| shape "0.2"
