bps (70/120)

d1 $ every 3 (0.25 <~) $ every 4 (0.25 <~) $ sound "[yoi [hh perc:2]]*2 [[sdeep perc:2 ~ ~] [hh*4 [judah:4, [hh*2 ~]]]/2] [kh kh perc:2 kh hh kh kh kh] [[sdeep hh ~ perc:2] [judah:3 judah:5]/2]"
|+| speed "[1 1 1 1 0.8 1 1 1 1 1.5 1]/3"
|+| delay (slow 3.5 "[0 [0.5 0] 0 0 0 0]")
|+| delaytime "0.5"
|+| delayfeedback "0.5"

