bps 1

d1 $ every 4 rev $ stack[ smash 3 [3,1,2] $ sound "[~ [~ uldrums*9]]/2" |+| speed "2", every 5 rev $ striate 128 $ sound "[uldrums/5]/2" |+| speed "[1 2 1 1.3]/4",  whenmod 5 3 (0.25 <~) $ striate 128 ( sound "sytrus1/6" |+| speed "[1 0.5, 3 1.5]/2")]
