bps (170/120)

d1 $ every 3 (0.25 <~) $ every 4 (0.25 <~) $ slowspread ($) [rev, jux (iter 8), (|+| accelerate "1 -1"), slow 2, slow 1, (|+| speed "0.5") . slow 2] $ stack [  sound (samples "kh ~ shard ~ ~ kh shard ~" "8"), slow 2 $  sound (samples "kit2*16" (slow 0.8 $ run 33)), slow 2 $ sound (samples "b ~ sub b b ~ b ~" (run 38)) |+| speed "[1 1.1225]/3" |+| cut "1", slow 8 $ striate' 32 0.1 $ sound "ahh"]
