bps 0.9

d1 $ every 5 (|+| speed ((+0.35) <$> slow 2.1 sinewave1)) $ whenmod 5 4 ((|+| delay "0.5") . (|+| delayfeedback "0.5") . (|+| delaytime ((*0.5) <$> slow 3.1 sinewave1))) $ stack[ whenmod 7 5 (slow 2) $ whenmod 6 4 (density 2)  $ every 2 (jux (striate 2)) $ every 4 (0.25 <~) $ every 3 (0.25 <~) $ sound "amoebavox amoebavox*2 [~ amoebavox] amoebavox*4"
|+| cut "1" |+| shape "0.2" |+| pan "[0.5 0.5 0.5 [0 1 0 1]]/3", every 3 (jux (triple 0.25)) $ sound (samples "[bd*6 [cp sn can 808ch*2] [jazz*2 drum] [drum ~ jazz drum*2]]" (slow 0.7 $ run 18))]
