d1 $ smash 2 [3,2,8,1] $ stack [every 3 (0.25 <~) $ every 4 rev $ every 2 (0.25 <~) $ striate 128 $ sound "[breaks125]" |+| speed "0.7", every 2 rev $ every 5 (0.25 <~) $ every 3 rev $ every 2 (0.25 <~) $ sound "[[sytrus1/3]*16 [~ sytrus1/3]*24 [sytrus1/3 ~]*8 [sytrus1/3]*32]" |+| shape "-0.3" |+| cutoff "0.1" |+| resonance "0.1" |+| speed "[[1.0 0.8] [1.0 1.5 0.8] [0.5] [0.8 1.2]]"]


d1 silence