d1 $ every 4 (0.25 <~) $ every 3 (0.25 <~) $ every 3 (jux rev) $ density 2 $ stack[ sound "[~ autodrums2/2]/2" |+| shape "0.25", every 5 (|+| speed "0.5") $ sound (pick <$> "[taste1 [taste2]*2 [~ taste1] [taste2 taste1]]" <*> slow 0.75 (run 8)), sound "beeps/6*8"
|+| speed "[0.125 0.5 0.75 0.25 0.5 0.75 0.25 1.25]"]
|+| shape "0.1"

