bps (210/120)

d1 $ stack [  slow 4 $ striate 16 $ sound "sea" |+| speed "0.5", (0.25 <~) $ slow 3 $ striate 16 $ sound "sea" |+| speed "0.75",  (0.1225 ~>) $ slow 5 $ striate 16 $ sound "sea" |+| speed "0.25", (0.33 <~) $ slow 8 $ striate 32 $ sound "sea" |+| speed "[0.1225 0.061225]/2", slow 12 $ striate' 128 0.005 $ sound "alonevox:3" |+| speed "0.75" ] |+| delay "0.4" |+| delaytime "0.5" |+| delayfeedback "0.4" |+| cutoff ((*0.3) <$> slow 2.1 sine1) |+| resonance "0.3" |+| shape ((*0.5) <$> slow 2.21 sine1) 

hush
