d1 $ every 3 (jux (trunc 0.25)) $ stack[ every 5 (density 2 . rev) $ every 2 (0.25 <~) $ every 3 (0.25 <~) $ sound "sytrus*4 [~ sytrus*2] sytrus*4 sytrus*2" |+| speed "[[0.5 1 0.75 0.625 0.5 1 0.5 1 0.625 0.75], [~ 0.25 ~ ~ 0.25]]", every 3 (0.25 <~) $ every 4 (0.25 <~) $ sound (samples "peri*16" (run 27))
|+| speed (slow 3 "[1 1 0.5 2 0.4 1.5 2]")]

hush