bps (140/120)

d1 $ whenmod 6 4 (|+| speed "0.8") $ every 3 (0.25 <~) $ every 4 (0.25 <~) $ stack[ slow 2 $ sound (samples "pain:0 [pain*2 pain:0] [shard doru:1] hh*4 k*4 ktite*8 [shard [doru:20 doru:21]/2] hh*8" (run 24)), slow 2 $ sound (samples "[~ [~ sub]/2] ~ ~ [up ~]/2 ~ ~ ~ [sub ~]/2" (run 14)) |+| cut "1", every 4 (const $ sound "gnome ~" |+| end "0.01" |+| cut "2") $ sound (samples "gnome gnome gnome [~ gnome] ~ gnome ~ gnome*2" "0") |+| end "[0.1 0.1 0.1 0.5]*2" |+| cut "2"]

