bps 0.7

d1  $ stack [ every 3 rev $ spread' (slow) "[1 1 2 1 1 3]/2" $ juxcut (rev) $ sound "[bass0:1 bass0:1*4]*4"
|+| speed "[[[0.5 0.25]*4 [0.6 0.3]*4 [0.4 0.2]*4]/4]"
|+| accelerate "[0 1 0 -0.5]/2", jux (iter 8) $ every 5 (|+| speed "0.5") $ stack [slow 3 $ sound "less:1", every 3 (rev . (0.25 <~)) $ every 4 (0.25 <~) $ striate' 128 (1/100) (sound "~ less:4") |+| speed "0.25"] ]
|+| delay "0.5"
|+| delayfeedback "0.3"
|+| delaytime "0.1"

