bps (130/120)

d1 $ slowspread ($) [trunc 0.25, trunc 0.25, (|+| speed "1.5") . rev, id, iter 4, iter 4] $ every 3 (0.25 <~) $ every 4 (0.25 <~) $ within (0.25, 0.75) (every 3 (slow 2 . rev . stut 8 0.25 0.25)) $ stack [ whenmod 12 3 (const $ sound "k:10*16?") $ sound "~", whenmod 16 12 (degradeBy 0.9) $ slow 2 $ (slowspread (striate) [512, 1024, 256, 2048] $ sound "idea") |+| speed "[[0.5 0.25]/2, [1.5 2]]" |+| delay "0.4", sound (samples "grunt*4 [grunt*2 ~] grunt*4 [~ grunt*2]" (every 4 (slow 0.8) $ run 11)) |+| speed "2" ] |+| delaytime "0.5" |+| delayfeedback "0.4"

hush
