bps (130/120)

d1 $ slowspread ($) [id, rev, (|+| speed "0.5 0.8 1 1.3"), id, (|+| vowel "a o u i e o u o"), id, within (0.25, 0.75) ((|+| pan "0 1") . rev), id] $ whenmod 8 6 (trunc 0.25) $ every 4 (0.25 <~) $ every 3 (0.25 <~) $ stack [ jux (0.01 <~) $ slowspread (slow) [3,2,4] $ (striate' 1024 (1/100) $ sound "[fran nerd:3]/2") |+| speed "[1 0.5, [1.5 ~ 2]/2]" |+| gain "0.9", density 2 $ sound (samples "[kv untuned] [untuned k] [kh tite*2] [doru kh]" (run 42)), sound "[cp]*2", sound (samples "~ [~ b] ~ ~ [~ b] ~ b ~" (run 27)) |+| cut "1", sound "{hh*4 [hh*4 ~ ~]/3 [hh*4 ~]/2}%4" |+| gain "0.9", whenmod 10 4 (const $ sound "~") $ sound "[shard:17 [kh:51*2 ~]]*2" ]

hush
