bps (160/120)

d1 $ whenmod 8 6 (trunc 0.25) $ stack [ slowspread ($) [stut 4 0.25 0.25, rev, (|+| speed "-1 1 1.5"), stut 8 0.5 0.5, (|+| vowel "a o u") . (|+| delay "0.4"), slow 1, slow 2 . stut 6 0.25 0.33 . (|+| speed "0.8")] $ every 4 (0.25 <~) $ every 3 (0.25 <~) $ sound (samples "kv sv kl [hv sv]" (run 14)), sound (samples "{keys2*4 ~ ~}%4" (whenmod 5 3 (slow 0.5) $ run 33)) |+| speed (whenmod 4 2 ((*0.9) <$>) "[1, 1.5]") |+| delay "0.5" |+| cutoff (scale 0.01 0.2 $ slow 4.1 sine1) |+| resonance "0.7" ]  |+| delayfeedback "0.4" |+| delaytime "0.5"

hush
