bps (165/120)

d1 $ jux (iter 4 . every 3 (slow 2 . rev) . striate 4 . every 2 (slow 2)) $
stack [
whenmod 6 3 (trunc 0.75 . density 2) $ slow 2 $ sound "{vbs vbhh [percg:4]}%16" |+| shape "0.1" |+| end "1" |+| speed "[1]",
sound "fk*8 ~" ]

hush
