bps (170/120)

d1 $ (sometimes (|+| cut "1")) $ stack [
whenmod 6 4 (slow 4 . trunc 0.125) $
slowcat [
sound (samples "teeny1*8" (run 32)),
sound (samples "akuma2*8" (run 16)),
sound (samples "ion2*8" (run 32)),
sound (samples "akuma3*8" (run 32))]
|+| unit "c" |+| speed "{8 7 4 6 5}%4" |+| begin "-1"
|+| end (slow 7 $ scale 0.2 0.9 sine1)
|+| loop (slow 4 $ "{10 4 3 5 7}%4")]

hush
