bps (60/120)

d1 $ every 3 rev $
whenmod 5 3 (slow 1.25 . (|*| up "-2")) $
slowspread (\x -> stut' x (0.125/4) ((|*| up "2"))) [8,1,4,2] $
slowspread (\y -> spread' (striate' y) ((*0.5) <$> slow 1.71 sine1)) [4,8,16] $
sound (samples "nyanx2" ("0"))
|=| up "0"
|+| delay "0.5"
|+| delaytime (scale 0.01 0.3 $ slow 1.51 sine1)
|+| delayfeedback (scale 0.7 0.98 $ slow 1.1 sine1)

hush
