bps (100/120)


-- 1M bank 2.4
m $ slow 4 $ note "[ [31 35 [36 38]/2 [43 40]/2], [43 47 [48 50]/2 [55 52]/2]]"
|+| dur "2"

brute $ rarely (|+| note "[12 -12]*5") $ stut' 3 (0.125/2) (|+| note "[12 -12 -7]*4") $
(|+| note "12") $
(|+| note "[55 43]/8") $ mel major 5 "{~ [~ ~ ~ 0] 0 ~ ~}%4"

-- nord p2.8
k10 $ note "{[60/2 65] [61 62] [62 60]*2 [61 64/2] ~}%4"
|+| vel (scale 0.5 1 $ rand)


m silence
brute silence

k10 silence
