d1 $ stack [jux (iter 8) $ slow 8 $ trunc 0.125 $ striate 16 $ sound "kh*16 kh*4 kh*8 kh*12 kh*4 kh*24 kh*8 kh*12"
|+| speed (every 2 rev "[0.5 1 1.75 0.75]") |+| gain "0.7", every 4 (0.25 <~) $ every 5 (0.25 <~) $ every 3 (slow 2) $ every 2 (slow 2) $ sound (samples "cp*2 ~ cp*2 ~ cp*2 cp*2 ~ ~" "0") |+| gain "0.9" |+| speed "[1.5, 1.25]", density 2 $ sound (samples "~ [~ b] ~ b" "11") |+| speed (every 3 ((*2) <$>) "1") |+| cut "1", sound "~ s" |+| shape "0.3" |+| speed "0.9"]

