bps (170/120)

d1 $ whenmod 12 10 ((|+| speed "0.5") . slow 2) $ every 4 (0.25 <~) $ every 3 (0.25 <~) $ stack[  whenmod 10 8 (const $ sound (samples "haze b [~ b] [~ b]" (run 31)) |+| cut "3") $ slow 4 $ sound "tin:11 tin:2 tin:5 tin:3" |+| cut "3", whenmod 10 8 (const $ sound (samples "kit2*8" (run 43))) $ sound (samples "kit4 kit4 kit4 kit4*2 kit4 kit4 kit4*2 kit4" (run 33)), whenmod 10 8 (const $ slow 2 $ sound (samples "kh ~ kh shard ~ kh shard ~ kh shard ~ kh shard ~ kh shard" "1")) $ sound (samples "k ~ s ~ ~ k s ~" "10"), slow 3 $ sound "ul coin sea sea:1" |+| speed (whenmod 10 8 ((*0.75) <$>) "[[1 0.5]/3, [~ 0.8 ~ 1.5 ~ 0.25]/2]") |+| gain "0.9"] |+| shape "0.2"
