bps (175/120)

d1 $ whenmod 9 8 (stut 4 0.5 0.5) $ whenmod 4 3 (|+| speed "1.1225 0.9") $ whenmod 8 7 (slow 2) $ whenmod 7 5 (trunc 0.25) $ whenmod 5 4 (|+| accelerate "-0.5 0.5") $ stack [ slow 4 $ striate 16 $ sound "blh4" |+| gain "0.8" |+| cut "2", every 3 (0.25 ~>) $ stack [ sound (samples "chip*8" (every 2 (slow 0.8) $ run 16)) |+| shape "0.1" |+| delay "0.4" |+| end "0.3" |+| cutoff ((*0.1) . (+0.01) <$> slow 3.1 sine1) |+| resonance "0.8", sound (samples "[kh/2 ~ ~ kh/4] s [[~ kh/3] s] ~" "13"), sound (samples "[hh psr] [kit1 c64] [psr kit1] [kit1 psr] [hh c64] [psr hh] [kit1 hh] [hh peri]" (run 32))]] |+| delaytime "0.75" |+| delayfeedback "0.5"


hush
