bps (170/120)

d1 $ stack[ slow 2 $ sound (samples "doru [~ boi] perc untuned*4? [bom bom bom gnome]/4 perc*2 ul*2? perc*4?" (run 22)) |+| cut "1", sound "~ s", whenmod 5 4 (const $ sound "future*16?" |+| speed "2") $ sound (samples "k*8?" (slow 0.7 $ run 11)), slow 1.5 $ slow 4 $ sound (samples "arpy*16" (run 19)) |+| delay "0.25" |+| delayfeedback "0.6" |+| delaytime "0.35" |+| speed (whenmod 6 4 ((*0.8) <$>) "[1, 1.5]")] |+| shape "0.2"

