bps (135/120)

d1 $ whenmod 5 4 (0.25 <~) $ whenmod 4 3 (0.25 <~) $ stack [ sound "k:4*4? faze" |+| cut "1", slow 2 $ sound (samples "[sub ~ ~ sub] [~ ~ sub ~] ~ [[sub ~ ~ sub ~ ~ sub ~] ~ ~ ~]/4" "[8 0]/2") |+| delay "0.2" |+| delayfeedback "0.7" |+| delaytime "0.45" |+| speed "[4 5 6 7 4 6 5]/3" |+| accelerate "-1" |+| cut "2", slow 8 $ (striate 16 $ sound "padloop16") |+| speed "[1, 1.5 2]" |+| cutoff "0.05" |+| resonance "0.1" |+| gain "0.5"] |+| shape "0.2"

