d1 $ stack[ striate 16 $ sound "dnbhard", sound (samples "defrag*16" (every 4 (slow 0.8) $ run 26)), sound "~ [~ click] ~ jvbass*4" |+| shape "0.9" |+| speed (every 4 ((*0.8) <$>) $ "1"), every 3 (rev) $ density 4 $ striate 2 $ sound "bass3 bass3:3" |+| speed (every 5 ((*0.8) <$>) $ "[8 3 4 2]/2"), sound "[~ ~ ~ [cp:3 ~]/2]*2" |+| shape "0.7" |+| speed "0.8"  ]

